X:1
T:As for Me and My House
T:As for Me and My House
T:Franklin Edson Belden
T:Franklin Edson Belden, 1909
T:Public Domain Courtesy of the Cyber Hymnal™
C:Franklin Edson Belden
Z:Public Domain
Z:Courtesy of the Cyber Hymnal™
%%score ( 1 2 ) ( 3 4 )
L:1/8
Q:1/4=105
M:4/4
K:D
V:1 treble 
V:2 treble 
V:3 bass 
V:4 bass 
V:1
 D4 FE D2 | GF E2 A4 | [FA]3 [FA] [GB][FA][DF][Fd] | [Ac]2 [^GB]2 !fermata![=GA]4 | D4 FE D2 | %5
w: 1.~Like Ca- leb and|Josh- u- a stand,|On the bor- ders of the|prom- ised land,|O- bey- ing Je-|
w: 2.~“Well a- ble to|en- ter the land,”|Tell it out to ev- ery|doubt- ing band;|Faith bring- eth the|
w: 3.~Walled ci- ties go|sev- en times round,|Per- se- ver- ance is with|vic- tory crowned;|Sin gi- ants of|
 AG F2 !fermata![Fd]2 [GA]!fermata![GA] ||"^Refrain" (A3 A d2) [Ac]2 | c2 B4 z2 | (B3 B e2) [Bd]2 | %9
w: ho- vah’s com- mand, say- ing,|“As * * for|me and|my * * house,|
w: tri- umph God planned, say- ing,||||
w: ha- bit are bound, say- ing,||||
 d2 c4 z2 | (c3 c f2) [ce]2 | d2 [^Ac]2 B2 e2 | [Ad]4 [Ac]4 | [Ad]6 |] %14
w: As for|me * * and|my house, As for|me and|my|
w: |||||
w: |||||
V:2
 D4 FE D2 | GF E2 A4 | x8 | x8 | D4 FE D2 | AG F2 x4 || F6 x2 | AA G2 G2 x2 | ^G6 x2 | %9
 BB A2 A2 x2 | ^A6 x2 | BB x B2 BB x | x8 | x6 |] %14
V:3
 D,4 F,E, D,2 | G,F, E,2 A,4 | [D,D]3 [D,D] [D,D][D,D][D,A,][D,A,] | %3
w: ~ ~ ~ ~|~ ~ ~ ~|~ ~ ~ ~ ~ ~|
 [E,E]2 [E,E]2 !fermata![A,,C]4 | D,4 F,E, D,2 | A,G, F,2 !fermata![B,D]2 [CE][CE] || %6
w: ~ ~ ~|~ ~ ~ ~|~ ~ ~ ~ ~ ~|
 z2 DD A,2 x2 | (D2 D2) [G,D]2 z2 | z2 EE B,2 E2 | (E2 E2) [A,E]2 z2 | z2 FF C2 F2 | %11
w: “As for me|and * my|house, As for me|and * my|house, As for me|
 [B,F]2 [F,E]2 [G,D]2 (GG) | [A,F]4 [A,,E]4 | [D,F]6 |] %14
w: and my house, We *|will serve|the|
V:4
 D,4 F,E, D,2 | G,F, E,2 A,4 | x8 | x8 | D,4 F,E, D,2 | A,G, F,2 x4 || x4 (D,D,F,)F, | G,4 x4 | %8
 x4 (E,E,^G,)G, | A,4 x4 | x4 (F,F,^A,)A, | x6 E,2 | x8 | x6 |] %14

